src/assets/images/whatsapp.svg

<svg width="20" height="20" viewBox="0 0 20 20" fill="none" xmlns="http://www.w3.org/2000/svg">
<path d="M16.9993 5.17135C14.5368 1.30847 9.50924 0.16004 5.61028 2.5613C1.81392 4.96255 0.582669 10.1827 3.04517 14.0456L3.25038 14.3588L2.42954 17.4908L5.50767 16.6556L5.81548 16.8644C7.14934 17.5952 8.5858 18.0128 10.0223 18.0128C11.5613 18.0128 13.1004 17.5952 14.4342 16.76C18.2306 14.2544 19.3592 9.13865 16.9993 5.17135ZM14.8447 13.2103C14.4342 13.8368 13.9212 14.2544 13.203 14.3588C12.7926 14.3588 12.2795 14.5676 10.2275 13.7324C8.48319 12.8971 7.04673 11.5399 6.02069 9.97387C5.40507 9.24305 5.09725 8.30343 4.99465 7.36381C4.99465 6.52859 5.30246 5.79777 5.81548 5.27576C6.02069 5.06695 6.2259 4.96255 6.43111 4.96255H6.94413C7.14934 4.96255 7.35455 4.96255 7.45715 5.38016C7.66236 5.90217 8.17538 7.155 8.17538 7.2594C8.27799 7.36381 8.27799 7.57261 8.17538 7.67701C8.27799 7.88582 8.17538 8.09462 8.07278 8.19903C7.97017 8.30343 7.86757 8.51223 7.76496 8.61663C7.55976 8.72104 7.45715 8.92984 7.55976 9.13865C7.97017 9.76506 8.48319 10.3915 8.99621 10.9135C9.61184 11.4355 10.2275 11.8531 10.9457 12.1663C11.1509 12.2707 11.3561 12.2707 11.4587 12.0619C11.5613 11.8531 12.0743 11.3311 12.2795 11.1223C12.4848 10.9135 12.5874 10.9135 12.7926 11.0179L14.4342 11.8531C14.6394 11.9575 14.8447 12.0619 14.9473 12.1663C15.0499 12.4795 15.0499 12.8971 14.8447 13.2103Z" fill="white"/>
</svg>

<svg xmlns="http://www.w3.org/2000/svg" width="20" height="20" fill="none" viewBox="0 0 20 20"><path fill="#fff" d="M17 5.171a8.286 8.286 0 0 0-11.39-2.61C1.814 4.963.583 10.183 3.045 14.046l.205.313-.82 3.132 3.078-.835.307.208c1.334.731 2.77 1.149 4.207 1.149a8.3 8.3 0 0 0 4.412-1.253C18.231 14.254 19.36 9.139 17 5.171m-2.155 8.04c-.41.626-.924 1.043-1.642 1.148-.41 0-.923.209-2.976-.627-1.744-.835-3.18-2.192-4.206-3.758-.616-.731-.924-1.67-1.026-2.61 0-.835.307-1.566.82-2.088q.308-.313.616-.313h.513c.205 0 .41 0 .513.417.205.522.718 1.775.718 1.88a.32.32 0 0 1 0 .417c.103.209 0 .418-.102.522-.103.104-.205.313-.308.418-.205.104-.308.313-.205.522.41.626.923 1.253 1.436 1.775.616.521 1.231.94 1.95 1.252.205.105.41.105.513-.104.102-.209.615-.73.82-.94.206-.208.308-.208.514-.104l1.641.835c.205.104.41.209.513.313.103.313.103.731-.102 1.044"/></svg>
